X:1
T:Ave verum
T:Chausson op. 6 no. 2
T:Ave verum
T:Copyright © 2017 by CPDL.  This edition can be fully distributed, duplicated, performed, and recorded 
T:Copyright © 2017 by CPDL.  This edition can be fully distributed, duplicated, performed, and recorded 
T:Copyright © 2017 by CPDL.  This edition can be fully distributed, duplicated, performed, and recorded 
T:Copyright © 2017 by CPDL.  This edition can be fully distributed, duplicated, performed, and recorded 
T:Copyright © 2017 by CPDL.  This edition can be fully distributed, duplicated, performed, and recorded 
T:Copyright © 2017 by CPDL.  This edition can be fully distributed, duplicated, performed, and recorded 
C:Chausson op. 6 no. 2
Z:Alleluia verse for Corpus Christi
Z:Copyright © 2017 by CPDL.  This edition can be fully distributed, duplicated, performed, and recorded
%%score 1 { ( 2 3 ) | ( 4 5 ) }
L:1/8
Q:1/4=60
M:2/4
K:D
V:1 treble nm="Soprano Solo" snm="S. Solo"
V:2 treble nm="Organ" snm="Org."
V:3 treble 
V:4 bass 
V:5 bass 
V:1
 z4 | z4 |!p! (AFED) | F4 | A2!<(! c2 | c2 c!<)! z |!>(! dAGD | F2 F2 | A3!>)! F | F4 | %10
w: ||A- * * *|ve|ve- rum|cor- pus|na- tum de Ma-|ri- a|Vir- gi-|ne.|
"^poco piu'"!f! c3 B | (BA) ^G2 | cc e2 | A2 B2 | c3 c |!>(! F2 ^G!>)!G |"^poco rit." A4- | %17
w: Ve- re|pas- * sum,|im- mo- la-|tum in|cru- ce|pro ho- mi-|ne.|
 A2- A z |!pp!"^a tempo" (AFED) | F4 | A2 c2 | c2 c z | dAGD | F2 F2 | E3 D |[Q:1/4=120] D2- D z | %26
w: _ _|A- * * *|ve|ve- rum|cor- pus|na- tum de Ma-|ri- a|Vir- gi-|ne. _|
 z4 | z4 | z4 | z2 E2 | F2 G2- | G2 G2- | G2 z2 | z2 FF | (c2 E2) | D4- | D2 z2 | z2"^cresc." B2 | %38
w: |||Cu-|jus la-|* tus|_|per- fo-|ra- *|tum|_|un-|
 (e2 d2) | ^c2 c2 | =c4 |!>(! =c2 B2 | B2- B!>)! z | z2 A2- | AE G2 | F4 |"^cresc." e3 e | e2 d2 | %48
w: da _|flu- xit|cum|san- gui-|ne. _|E-|* sto no-|bis|prae- gu-|sta- tum|
!>(! (c2 BA) | A4 | A2 A2 | B4- | B2!>)! A2 | A2- A z | z4 | z4 | z4 | z4 |"^rit." z4 | z4 | %60
w: mor- * *|tis|in ex-|a-|* mi-|ne. _|||||||
!p![Q:1/4=56] (AF)ED | F2 F z |"^cresc." (cA) ^G>c | c2 c z |!f! (fd)cB | (dA)!>(!GD | F3!>)! F | %67
w: O _ Je- su|dul- cis.|O _ Je- su|pi- e.|O _ Je- su,|Je- * su Fi-|li Ma-|
!>(! (A3!>)! F) | F4 | z2!pp! A2- | A2 A2- | AAAA |!>(! (A^G)!>)! G2 | z2 =G2- | G2 _A2- | AGGG | %76
w: ri- *|ae.|Tu|_ no-|* bis mi- se-|re- * re,|Tu|_ no-|* bis mi- se-|
!>(! (G=F)!>)! F2 | z2 =F2 |"^rit." A=F!>(!FE | (E2!>)! D2) |[Q:1/4=48] D4- | D z z2 | (A=FED) | %83
w: re- * re,|Tu|no- bis mi- se-|re- *|re.|_|A- * * *|
 d4- | d4- | d2 z2 |] %86
w: men.|_||
V:2
!p! AFED | FDB,D | AFED | FDB,D | AF!<(!^EC | cA^G!<)!=G | [Fd]AGD |!<(! [DF]4!<)! | %8
!>(! [CE]3!>)! D | ([F,D]E (3FAB) | cA^G^E | cA^GD | cA ^GF/G/ | AF B2 | cA^GF | F2 ^G2 | A4- | %17
 A4 | AFED | FDB,D | AF^EC | cA^G=G | [Fd]AGD | [DF]4 | E3 D | D z!p! (A,2 | [F,D]2 E2 | [DF]2 EF | %28
 D2 CB,) | z2 E2 | F2 G2- | G2 FG | E2 DC | z2 F2- | c4 | d2 B2 | G2 F2 | [E-B]4 | %38
"^cresc." [Ee]2 [=Fd]2 | ^c4 | =c4- |!>(! c2 B2 | ^G4!>)! | [EA]e^cB | AECB, | E4 | EF^Ac | %47
 [E^Ae]2 [FBd]2 | c2 BA | [EA]4- | [EA]4 | [D=FB]4- | B2 A2- | [CEA] z z2 | z4 | [^FA]4- | [FA-]4 | %57
 [EA-]4 | [DA]4 | [GA]4 | AFED | FDB,D | AF^EC | cA^G=G | fdcB | dAGD | [DF]4 | [CE]3 D | %68
 ([F,D]E (3FGA) |!pp! A4- | A4- | A4- | A ^G3 | [_E=G-]4 | G2 _A2- | A G3- | G =F3- | F4- | F3 E | %79
 E2 D2 | A=FED | =FDB,D | A=FED | [A,^F]4- | [A,F]4- | [A,F]2 z2 |] %86
V:3
 z F,G,^G, | A,2 ^G,=G, | z F,G,^G, | A,2 ^G,=G, | FA, B,2 | C2 ^E=E | D3 B, | ^A, B,2 ^B, | %8
 z2 G,2 | x4 | C2 D2 | C2 D2 | C2 D2- | D3 E/D/ | C4 | A, D2 B, | ED=CB, | A,4 | z F,G,^G, | %19
 A,2 ^G,=G, | FA, B,2 | C2 ^E=E | D3 _B, | =B,4 | C2 G,2 | F,4- | x4 | x4 | x4 | B,4- | B,4- | %31
 B,4- | B,2 DC | C4 | F2 E2 | D4- | D2 ^D2 | x4 | x4 | EACE | ^DEFG | A G2 F | =FD z2 | x4 | x4 | %45
 ^A,B,^B,C | x4 | x4 | =G2 F2 | x4 | x4 | x4 | [DF]4 | x4 | x4 | x4 | x4 | x4 | x4 | x4 | %60
 z F,G,^G, | A,2 ^G,=G, | FA, B,2 | C2 ^E=E | F2 ^E2 | F D2 B, | ^A, B,2 ^B, | z2 G,2 | x4 | %69
 [D=F]4 | [=CE]4 | =F4 | E4 | x4 | D4 | _D2 =C2- | C3 B, | ^C4- | C4 | =F,4 | =F,2 G,^G, | %81
 =F,2 ^G,=G, | z =F,G,^G, | x4 | x4 | x4 |] %86
V:4
 A,,2 B,,_B,, | A,,2 B,,_B,, | A,,2 B,,_B,, | A,,2 B,,_B,, | [C,,A,,]2 [C,^G,]^E, | %5
 [F,A,]2 [^G,B,][A,C] | [D,,A,,]2 B,,E, | G,,4 | A,,4- | [D,,A,,]2- [D,,A,,] z | A,2 B,2 | %11
 A,2 B,2 | A,2 B,2 | [^F,-A,]2 [D,F,]2 | F,4- | F,2 =F,E,- | E,4- | E,G,^F,E, | A,,2 B,,_B,, | %19
 A,,2 B,,_B,, | [C,,A,,]2 [C,^G,]^E, | [F,A,]2 [^G,B,][A,C] | A,,2 =B,,E, | G,,4 | A,,4- | %25
 [D,,A,,]4- | [D,,A,,]2 z2 | [B,,F,]4- | [B,,F,]4 | G,A,G,F, | E,4- | E,4 | G,4 | [^A,,F,]4- | %34
 [A,,F,]4 | [B,,-F,]4 | [B,,B,]2 [A,,A,]2 | [G,,G,]4- | [G,,G,]2 [^G,,^G,]2 | [A,,A,]2 =G,2 | %40
 F,2 E,2 | ^D,4 | z2 =CB, | [^C,A,]4- | [C,A,]2 E,2 | F,4- |"^cresc." [^A,,F,]4 | G,2 F,2 | %48
 ^A,2 B,^B, | C4- | C4 |!>(! ^G,4!>)! | A,2 B,2 | E, z!p! E,2 |!<(! A,2 B,2 | C2 B,C | %56
 A,2!<)! B,2 |!>(! C2 B,C | A,2 B,2!>)! | C D2 E |!p! A,,2 B,,_B,, | A,,2 B,,_B,, | %62
"^cresc." A,,2 ^G,^E, | [F,A,]2 [^G,B,][A,C] |!f! A,2 ^G,2 | A,F,!>(!B,,E,!>)! | [A,,G,]4- | %67
!>(! [A,,-G,]2!>)! A,,2 | [D,,A,,]2- [D,,A,,] z | z4 | z4 | [B,D]4- | D4 | [A,=C]4 | [=F,=B,]4 | %75
 [E,_B,]4 | _A,4 | [A,,G,]4- |!>(! [A,,G,]4 | _B,,2!>)! ^G,,2 |!pp! A,,2 B,,_B,, | A,,2 B,,_B,, | %82
 A,,2 B,,_B,, |!pp! [D,,A,,]4- | [D,,A,,]4- | [D,,A,,]2 z2 |] %86
V:5
 D,,4- | D,,4 | D,,4- | D,,4 | x4 | x4 | x4 | x4 | x4 | x4 | F,4 | F,4 | =F,2 E,2 | x4 | A,,4 | %15
 D,4 | =C,4 | ^C,4 | D,,4- | D,,4 | x4 | x4 | D,,4 | x4 | x4 | x4 | x4 | x4 | x4 | G,,4- | %30
 G,,B,,G,,F,, | E,,4- | E,,4 | x4 | x4 | x4 | x4 | x4 | x4 | x4 | x4 | x4 | =D,4 | x4 | x4 | x4 | %46
 x4 | B,,4 | C,2 D,^D, | E,3 C, | A,,2 F,,E,, | E,4- | E,4 | A,,4- | A,,2 z2 | x4 | x4 | =G,4 | %58
 F,4 | E,4 | D,,4- | D,,4 | C,,2 C,2 | x4 | D,4 | A,,4 | x4 | x4 | x4 | x4 | x4 | x4 | B,3 _B, | %73
 x4 | x4 | x4 | =F,2 D,2 | x4 | x4 | D,,4 | D,,4- | D,,4 | D,,4- | x4 | x4 | x4 |] %86

